Adwaita++-Dark/status/symbolic/network-vpn-disconnected-symbolic.svg

<svg height="16" width="16" xmlns="http://www.w3.org/2000/svg">
  <g fill="#e6ddff">
    <path d="m4.5 3c-2.48 0-4.5 2.02-4.5 4.5 0 2.49 2.02 4.5 4.5 4.5 1.91 0 3.6-1.2 4.24-3h3.26v1h3v-1h1v-3h-7.26c-.64-1.79-2.33-2.99-4.24-3zm0 3c.83 0 1.5.67 1.5 1.5s-.67 1.5-1.5 1.5-1.5-.67-1.5-1.5.67-1.5 1.5-1.5z" opacity=".3"/>
    <path d="m11 11v1c0 .28.1.54.28.72l.78.78-.78.78c-.18.19-.28.45-.28.72v1h1c.28 0 .54-.1.72-.28l.78-.78.78.78c.18.18.45.28.72.28h1v-1c0-.27-.1-.53-.28-.72l-.78-.78.78-.78c.18-.18.28-.44.28-.72v-1h-1c-.27 0-.54.1-.72.28l-.78.79-.78-.79c-.18-.18-.44-.28-.72-.28z"/>
  </g>
</svg>

<svg xmlns="http://www.w3.org/2000/svg" width="16" height="16" version="1.1">
 <path style="opacity:0.3;fill:#E6DDFF" d="M 4.5,3 C 2.02,3 0,5.02 0,7.5 0,9.99 2.02,12 4.5,12 6.41,12 8.1,10.8 8.74,9 H 12 V 10 H 15 V 9 H 16 V 6 H 8.74 C 8.1,4.21 6.41,3.01 4.5,3 Z M 4.5,6 C 5.33,6 6,6.67 6,7.5 6,8.33 5.33,9 4.5,9 3.67,9 3,8.33 3,7.5 3,6.67 3.67,6 4.5,6 Z"/>
 <path style="fill:#E6DDFF" d="M 11,11 V 12 C 11,12.28 11.1,12.54 11.28,12.72 L 12.06,13.5 11.28,14.28 C 11.1,14.47 11,14.73 11,15 V 16 H 12 C 12.28,16 12.54,15.9 12.72,15.72 L 13.5,14.94 14.28,15.72 C 14.46,15.9 14.73,16 15,16 H 16 V 15 C 16,14.73 15.9,14.47 15.72,14.28 L 14.94,13.5 15.72,12.72 C 15.9,12.54 16,12.28 16,12 V 11 H 15 C 14.73,11 14.46,11.1 14.28,11.28 L 13.5,12.07 12.72,11.28 C 12.54,11.1 12.28,11 12,11 Z"/>
</svg>
